X: 1381
T: Dave Barkla's Polka Mazurka
B: australian traditional tunes wiki
M:3/4
L:1/8
R: Polka Mazurka
Q: 1/4=100
K:D
V:1 
Ad|:"D"f2fe dB|A2A2Ad|"A"c2cA Bc|1"D"d2d2Ad:|2"D"d2-d2a2||
|:"G"b2 ef gb|"D"afd2f2|"A"g>f e>fe2|"D"f2d2a2|
"G"b2e>f gb|"D"afd2f2|"A"g2B2c2|"D"d6:|
% abcbook-tune_id 6342d53ab536ac5488f99218


% abcbook-boost 0
% abcbook-tablature 
% abcbook-transpose 
% abcbook-lastupdated 1665324362152
% abcbook-soundfonts 
% abcbook-repeats 1
% NFF Book 2007

